X: 12
T:Camp Meeting on the Fourth of July
C: Traditional
S:https://trillian.mit.edu/~jc/music/abc/Contra/reel/CampMeetingOnTheFourthOfJuly2.abc
M:C
L:1/8
R:March
K:D
DE |: "D"F2F2 FEDF | A2B2 AFDE | F2F2 ABAF | "A"EDEF E2 DE |
"D"F2F2 FEDF | A2B2 AFDE | "A"F2FB FD E2 |1 "D"D4D2 DE:|2 "D"D4D2 (3ABc |]
|: "D"d2 d2 dcBA | "G"B2dB AF D2 |"D" d2 dedc BA | "G"BABc B2 (3ABc |
"D"d2 d2ecBA | "G"B2 dB AFDE | "A"F2 ABAF E2 |1 "D"D4D2 (3ABc :|2 "D"D4D4 |]

